X: 13996
T: Frank Keane's
R: reel
M: 4/4
K: Gmixolydian
G3 A cAAc|dcde f2g2|G3 A cAAc|d2 ed cAAc|
G3 A cAAc|dcde f3 g|afge fdec|d2 ed cA A2||
g2 ge d3 (e|e)fge c3 (e|e)fge aege|dfed cA A2|
efge aege|aege cdec|f4 e3c|dfed cA Ac||

